svg/fluentui-system-icons/ic_fluent_table_bottom_row_24_filled.svg

<svg width="24" height="24" viewBox="0 0 24 24" fill="none" xmlns="http://www.w3.org/2000/svg">
<path d="M6.25 3C4.45507 3 3 4.45507 3 6.25V14.5H4.5V6.25C4.5 5.2835 5.2835 4.5 6.25 4.5H17.75C18.7165 4.5 19.5 5.2835 19.5 6.25V14.5H21V6.25C21 4.45507 19.5449 3 17.75 3H6.25ZM4.5 20.4891C3.8003 20.0411 3.28359 19.3324 3.08697 18.5C3.03009 18.2592 3 18.0081 3 17.75V16H8L8 21H6.25C5.60568 21 5.00515 20.8125 4.5 20.4891ZM20.913 18.5C20.9699 18.2592 21 18.0081 21 17.75V16H16V21H17.75C18.3943 21 18.9949 20.8125 19.5 20.4891C20.1997 20.0411 20.7164 19.3324 20.913 18.5ZM14.5 21V16H9.5L9.5 21H14.5Z" fill="#212121"/>
</svg>

<svg xmlns="http://www.w3.org/2000/svg" width="24" height="24"><path d="M6.25 3A3.25 3.25 0 0 0 3 6.25v8.25h1.5V6.25c0-.966.784-1.75 1.75-1.75h11.5c.966 0 1.75.784 1.75 1.75v8.25H21V6.25A3.25 3.25 0 0 0 17.75 3H6.25ZM4.5 20.49A3.255 3.255 0 0 1 3 17.75V16h5v5H6.25a3.235 3.235 0 0 1-1.75-.51Zm16.413-1.99c.057-.24.087-.492.087-.75V16h-5v5h1.75c.644 0 1.245-.188 1.75-.51a3.255 3.255 0 0 0 1.413-1.99ZM14.5 21v-5h-5v5h5Z"/></svg>
